X:2113
T:Brendan McMahon's
R:reel
D:Patrick Street 1.
Z:id:hn-reel-35
M:C|
K:Edor
B2~B2 BAFB|A2FA DAFA|B2~B2 BAFB|ABde fded|
B2~B2 BAFB|A2FA DF~F2|~G3E F2dB|AFDE FE~E2:|
|:~G3F GBdB|A2FA DAFA|~G3F GBdB|AFDE FEEF|
~G3F GBdB|AF~F2 DF~F2|~G3E F2dB|AFDE FE~E2:|


